X:1
T:Pays de Haut
M:C|
R:reel
K: D
fg| "D"afaf d2ef| "Em"gfge c2ef| "A7"gfge c2A2| "D"defg a2fg|
"D"afaf d2ef| "Em"gfge c2ef| "A7"gfge cABc| "D"d2f2 d2 :|
|:A2| "D"FAdA FAdA| "G"GBdB GBdB| "A"ABcd efec| "D"defg a2A2|
"D"FAdA FAdA| "G"GBdB GBdB| "A"ABcd efec| "D"d2f2 d2 :|
